X:1
T:Title
%%score [ 1 2 3 4 ]
L:1/8
Q:1/4=120
M:4/2
K:F
V:1 treble nm="MusicXML Part"
V:2 treble nm="MusicXML Part"
V:3 treble-8 nm="MusicXML Part"
V:4 bass nm="MusicXML Part"
V:1
"^Wir danken dir, o Gottes Lamm" A8 A4 A4 | G4 A4 G4 F4 | E4 z2 A4 GF (A3 B | %3
w: Wir dan- ken|dir, o Got- tes|Lamm, Got- tes * Lamm, *|
 c8"^Pierre de la Rue (um 1452-1518)" A8 | B8) A8 | G8 G8 | F8 (F6 ED) | E8 A8 | A4 A4 A8 | %9
w: * ge-|tö- tet|an des|Kreu- zes * *|Stamm, durch|dei- ne Wun|
 c6 BA G2 A2 B4- | B4 A6 G2 G4 | A6 F2 F8 | A8 (A8 | F4 D4 (B6) G2) | G4 (c6 B2 A2) G2 | %15
w: |* * * den,|Not und Pein|gib uns,|* o Herr, *|den Frie * * den|
 F4 B6 A2 (G2 F2 | E3 D E4 F8) |] %17
w: dein, Herr, den Frie *|* * den dein.|
V:2
 F8 F4 F4 | E4 F4 E4 D4 | (C3 D E2) F4 ED (F4 | E8 F8 | F8) F8 | D8 E8 | D8 D8 | C8 F8 | %8
w: Wir dan- ken|dir, o Got- tes|Lamm, * * Got- tes * Lamm,|* ge-|tö- tet|an des|Kreu- zes|Stamm, durch|
 (D4 F6 ED C2 D2 | E8 E4 F4-) | F4 F4 (D4 E4 | C6 D2 D8) | F8 E8 | D4 (F6 ED F2) G2 | E8 F6 E2 | %15
w: dei * * * * *|* ne Wun|* den, Not *|* und Pein|gib uns,|o Herr, * * * den|Frie * *|
 D2 C2 B,2 C2 D8 | C8 C8 |] %17
w: |den dein.|
V:3
 c8- c8 | c4 c4 c4 A4 | c8 d8 | c8 c8 | d8 c8 | B8 c8 | A8 B8 | G8 x8 | A8 (A6 GF) | G8 (c4 d4- | %10
w: Wir *|dan- ken dir, o|Got- tes|Lamm, ge-|tö- tet|an des|Kreu- zes|Stamm,|durch dei * *|ne Wun *|
 d4 c4 B8) | A8 A8 | A8 c4 c4 | d8- d8 | z2 (c4 B2) (A2 G2) F4 | f6 e2 (d2 c2 B2 A2 | %16
w: * den, Not|und Pein|gib uns, o|Herr, *|den * Frie * den,|Herr, den Frie * * *|
 G3 F G4 F8) |] %17
w: * * den dein.|
V:4
 F,8 F,4 F,4 | C,4 F,4 (C,4 D,4 | A,8 D,8 | A,,8) F,8 | B,8 F,8 | G,8 C,8 | D,8 B,,8 | C,8 D,8 | %8
w: Wir dan- ken|dir, o Got *|* tes|Lamm, ge-|tö- tet|an des|Kreu- zes|Stamm, durch|
 D,4 D,4 (F,6 E,D, | C,8 C,4 B,,4-) | B,,4 F,4 G,4 E,4 | F,3 G, A,4 D,8 | D,8 A,8 | %13
w: dei- ne Wun * *|* den, Not||* * und Pein|gib uns,|
 D,6 B,,2 B,,4 B,,4 | C,8 z4 F,4- | F,2 E,2 (D,2 C,2 B,,8) | C,8 F,8 |] %17
w: Herr, den Frie- den|dein, Herr,|* den Frie * *|den dein.|

